X:1
T:Capriccio
T:Capriccio
T:sopra la lontananza del suo fratello dilettissimo
T:J.S. Bach
C:J.S. Bach
%%score { ( 1 2 6 ) | ( 3 4 5 7 ) }
L:1/8
M:4/4
K:Bb
V:1 treble nm="Piano" snm="Pno."
V:2 treble 
V:6 treble 
V:3 bass 
V:4 bass 
V:5 bass 
V:7 bass 
V:1
"^Adagio.Ist eine Schmeichelung der Freunde, um denselben von seiner Reise abzuhalten.""^ARIOSO." z2 z MB/c/{c} dPc/B/{B} PAB/c/ | %1
 MB/F/F z MB/c/{c} Pde/f/ g/f/Pe/f/ | f/B/B z c dB/A/{A} GA/B/ | c/F/F z F BA/B/ TG>A | %4
 A/G/PA/B/ A/G/PA/B/ APG/F/ M=EF/G/ | F/C/C z MF/G/ APG/F/ T=E>F | F2 z A/B/ cf/e/ Pd/c/d/f/ | %7
 Pe/c/c z f/e/ ef/=e/ e_e/d/ | de/d/ dPc/B/ Bg/B/ e/d/Pc/B/ | Bd/B/ MBd/B/ MBe/c/ Mce/c/ | %10
 Mcf/d/ Mdf/d/ Mde/c/ MdPc/B/ | MB2 z2 z B/F/ PFd/B/ | PB/A/B/c/ MAd/B/ PB/A/B/c/ MAc/B/ | %13
 MBc/B/ MBc/B/ MBc/B/ MBc/B/ | MBc/B/ A2 z2 z B/A/ | B3 A B2 z2 | z2 z f/d/ !fermata!d4 |] %17
[M:4/4]"^(Andante.) Ist eine vorstellung unterschiedlicher Casuum, die ihm in der Fremde könnten vorfallen." Mdd{G}P^FG MA2{A} MBc | %18
 PB>c de{c} P=B2 Mcd | Pcd/A/ PBc/G/ A2 d2 | z cd_e d3 c | =f2 ed- d c2 =B | MccP=EF MG2 _A_B | %23
 _A>B c_d P=A2 MBc | Bc/G/ _AB/F/ G2 c2 | z Bc_d c3 B | _e2 _dc- c B2 =A | MBBPDE MF2 M=G_A | %28
 !turn!G>_A MBc MG2 MAB | _AB/F/ GA/E/ F2 B2 | z _AMBc B3 A | _d2 cB- B _A2 G- | %32
 G_A/=E/ FG/=D/ =E>F G_A | M=E2 MFG F2 F2 | F6 GF | F2 z [G=B] [Gc]2 z2 |] %36
[K:Eb][M:3/4]"^Adagissimo. Ist ein allgemeines Lamento der Freunde." z6 | z6 | z6 | z6 | %40
 z2 (f_e) (e_d) | (_dc) z B(cB) | (BA) (AG) (GF) | (F=E) E2 z2 | z BBA z _d | z AAG z c | %46
 z GGF z B | z FF=E z A | F2 z A_dB | G2 z GcA | F2 z FBG | _dF T=E3 F | F2 z _d2 d | z _d2 c z2 | %54
 z c2 B z A | z _G z F z =E | z (F_d).d(=dA) | (=GBe).e(=eB) | (Acf).f(a=B) | c(G_B)B(_d=E) | %60
 F2 z2 z2 | z6 | z6 | z6 | z f=e_ed_d | z =e_e=d_dc | z e=d_dc=B | z c_dc=B_B | =A_AG_GF_d | %69
 (_dG) z2 z c | (cF) z2 z B | (B=E) z2 z B | (BA) ._d.d(dc) | .f.f(f=e) .a.a | (ag) .b.b(ba) | %75
 (c'b)(ba)(ag) | (gf)(f_e)(e_d) | (_dc) z B(cB) | (BA)(A_G)(GF) | (F=E) z BA>=G | (GF) z2 z2 | z6 | %82
 z6 | z6 | z6 |] %85
[K:Bb][M:4/4]"^Allhier kommen die Freunde, weil sie doch sehen, dass es anders nicht sein kann, und nehmen Abschied." B4 z2 B2 | %86
 B4 z2 B2 | _d4 z2 [Bd]2 | [_Ac][GB][F_A][EG] F2 z [DF] | e_dcB c2 z c | =dcB=A B2 AG | %91
 ^F2 dc g=f=ed | ^c2 d=e f2 z =c | z f z f z f z f | z f z =e f2 cB | AGF=E !fermata!F4 |] %96
[M:4/4]"^Adagio poco.""^Aria di postiglione." B/c/d/e/ fg f/g/f/e/ Pd>c | %97
 B(b/B/) B(b/B/) B(b/B/) B(b/B/) | c/B/A/G/ FB{B} AG/F/ F(f/F/) | F(f/F/) Ff/_e/ d/c/B/c/ TA>B | %100
 B(b/B/) B(b/B/) B(b/B/) MB2 :: dg^fg ad g2 | z8 | ^cd/=e/ fe d^c d2 | z2 z (f/F/) F2 z ((f/F/)) | %105
 F2 z (b/B/) B2 z2 | z (b/B/) B/c/d/e/ fB/c/ TA>B | B(b/B/) B2 z (b/B/) MB2 :| %108
[M:4/4]"^Fuga all'imitazione della cornetta di postiglione." B,2 z B,/B,/ FFFF | %109
 DB, B,B,/B,/ GGGG | CA,A,F B,G,G,=E | FG/A/ =EF/G/ FG/A/ EF/G/ | F(f/F/) F2 z (d/D/) D2 | %113
 z A/G/ A/B/A/G/ F2 z2 | z (g/G/) G2 z (f/F/) F2 | z _e/d/ cF dFcF | d2 z PB/A/ B2- B/B/e/d/ | %117
 c2- c/c/f/e/ d3 c/B/ | c2 z/ A/B/c/ B2 z B/A/ | G2 z/ G/A/B/ A2 z/ A/B/c/ | d2 z/ =E/F/G/ A2 c2 | %121
 c2 c2 c2 z2 | z/ F/G/A/ B2- B2 z/ A/B/c/ | B2 z B/B/ ffff | dB BB/B/ gggg | cAAf BGG=e | %126
 fg/a/ =ef/g/ fg/a/ ef/g/ | fa/A/ A2 z f/F/ F2 | z b/B/ B2 z b/B/ B2 | B/A/B/c/ PA>A d2 z/ f/e/d/ | %130
 c2 z2 z f/g/ f/e/d/c/ | =Bg/G/ G2 z f/F/ Ff | e2 e2 f2 e2 | f2- f2 e2- e2 | db/B/ B2 z a/A/ A2 | %135
 z d/c/ d/e/d/c/ B2 z2 | z c'/c/ c2 z b/B/ B2 | z f g2 a2 g2 | a2 a2 g2 g2 | f2 f2- ff/F/ F2 | %140
 z d/D/ D2 z A/G/ A/B/A/G/ | F2 z2 z g/G/ G2 | z f/F/ F2 z/ e/d/c/ f2- | f/ffff/- f/ffff/- | %144
 f/ff/- f/ee/- ed c2 | B2 z2 z4 | z8 | z8 | z8 | z b/B/ Bb/B/ B/b/b/B/ B/b/b/B/ | %150
 A/a/a/A/ G/g/g/G/ F/f/f/F/ E/e/e/E/ | D/F/E/G/ F/A/G/B/ z d2 c | c B2 A d/g/g/B/ c/a/a/c/ | %153
 B/b/b/B/ A/a/a/A/ G/g/^c/g/ d/^f/=B/=f/ | =c/=e/A/_e/ _B/d/=E/^c/ d/A/G/F/ =E/d/E/^c/ | d2 z2 z4 | %156
 F f/F/ F2 z =e/=E/ E2 | z a/A/ A2 z/ B/b/B/ B2 | z/ A/a/A/ A2 | z/ G/g/G/ G2 | %160
 z/ f/=e/d/ e/g/f/e/ f/g/f/_e/ d/f/e/d/ | e2 z f/c/ d2 z f/d/ | %162
 e/g/c/e/ d/f/B/d/ c/e/A/c/ B/d/G/B/ | Ac- c/BA/ B2 z B/B/ | ffff feee | %165
 ec'/e/ db/d/ c/b/a/c/ d/f/c/a/ | Bb/B/ Bc de !fermata!f2 |] %167
V:2
 z2 z D/E/{E} FE/D/{D} CD/E/ | D2 z D/E/ FE/D/ EC | D2 z F F2 =ED | C2 D2 =E F2 E | %4
 FC/D/ C/B,/C/D/ CB,/A,/ G,A,/B,/ | A,2 z A,/B,/ CB,/A,/ G,/A,/B, | A,2 z F/G/ A2 =B2 | %7
 GE C2[I:staff +1] _B,CB,C | x8 | x8 | x8 | x8 |[I:staff -1] D/C/D/E/ CF/D/ D/C/D/E/ CE/D/ | %13
 DE/D/ DE/D/ DE/D/ DE/D/ | DE/D/ C2 z F/E/ PED/C/ | D/F/PE/D/ DPC/B,/ B,D/B,/ MB,F/D/ | %16
 MDB/F/ MFd/B/ MB4 |][M:4/4] z8 | MGG=B,C D2 EF | =E^FGE F>G AB | ^F2 GA G4 | z =FG_A GA/E/ FG/D/ | %22
 E2 z2 z4 | FF=A,B, C2 _D_E | =D=EFD !turn!=E>F G_A | P=E2 FG F4 | z _EF_G FG/_D/ EF/C/ | %27
 =D2 z2 z4 | EEG,_A, B,2 C_D | C=DEC !turn!D>E FG | D2 E2 E4 | z _DEF EF/C/ _DE/B,/ | %32
 C4 CC[I:staff +1]=E,F, |[I:staff -1] G,2 _A,B, !turn!A,>B, C_D | =A,2 B,C B,3 _A, | %35
 =B,2 z F- F=E z2 |][K:Eb][M:3/4] x6 | x6 | x6 | x6 | x6 | x6 | x6 | x6 | x6 | x6 | x6 | x6 | x6 | %49
 x6 | x6 | x6 | x6 | x6 | x6 | x6 | x6 | x6 | x6 | x6 | x6 | x6 | x6 | x6 | x6 | x6 | x6 | x6 | %68
 x6 | x6 | x6 | x6 | x6 | x6 | x6 | x6 | x6 | x6 | x6 | x6 | x6 | x6 | x6 | x6 | x6 |] %85
[K:Bb][M:4/4] [DFA]4 z2 [DFA]2 | [EG]4 z2 [EG]2 | [EGB]4 z2 [EG]2 | E2 z2 =DC[I:staff +1]B,_A, | %89
[I:staff -1] [EG]2 z E E2 z F | [=DF]2 z D G2 z E | x2 z ^F BAG=F | =E2 [=B,F][^CG] [DA]2 z [FA] | %93
 [Fd]2 [Fc]2 [G_B]2 [Ac]2 | [GBd]2 [GBc]2 [Ac]2 z =E | x8 |][M:4/4] x8 | x8 | x8 | x8 | x8 :: %101
 B2 AG ^F x3 | x8 | A3 B AG F2 | x8 | x8 | x8 | x8 :|[M:4/4] x8 | x8 | x8 | x8 | x8 | x8 | x8 | %115
 x8 |[I:staff +1] B,[I:staff -1]B/B,/ B,2 z G/G,/ G,2 | z A/A,/ A,2 z B/B,/ B,2 | %118
 z A/A,/ A,2 z D/C/ D/E/D/C/ | B,2 z2 z c/C/ C2 | z B/B,/ B,2 z G/F/ GC | ACGC A2 z/ G/F/_E/ | %122
 D2 z/ G/D/F/ E[I:staff +1]C- C2 | B,/G/F/E/ D[I:staff -1]G A/B/c/d/ c2 | BFFB d/c/d/e/ dB/G/ | %125
 =E2 z A/F/ D2 z G/=E/ | x8 | x8 | x8 | F2 z F/F/ BBBB | AF FF/F/ dddd | GEEc FDD=B | %132
 cd/e/ A_B/c/ Bc/d/ AB/c/ | B2 dg/G/ G2 cf/F/ | F2 z/ =E/F/G/ A2 z/ c/B/A/ | %135
 B2 F2 z d/c/ B/A/G/F/ | =E2 z/ F/G/A/ G2 z/ =E/F/G/ | Ac- cc- cc- cc- | cc z B- BB z A- | %139
 AA dB A2 z/ c/B/A/ | B2 z/ F/E/D/ C2 z2 | z B/c/ B/A/G/F/ E2 z/ F/E/D/ | C2 z/ =B,/C/D/ EG cF | %143
 dFcF dFcF | dB G2 AB- BA | BF z/ F/E/D/ C2 z2 | z D/E/ D/C/B,/A,/ B,2 z/ C/D/E/ | %147
 D2 z/ B,/C/D/ C2 z/ A,/B,/C/ | D2 E2 D2 E2 | D z x6 | x8 | x8 | F2 E2 A G2 ^F | G2 z2 z4 | z8 | %155
 D2 z D/D/ AAAA | x8 | x8 | x4 | x4 | F x7 | Cc/G/ A2 z _B/F/ BA | GAFG EFD=E | %163
 F>_E D[I:staff +1]C DF/D/ D2 |[I:staff -1] z c/A/ A2 z B/G/ EG | F2 F2 F2 FE | %166
 D2 z A [FB][FAc] [FBd]2 |] %167
V:3
 z2 z B, B,E, F,2 | B,2 B,,B, B,2 E,2 | B,2 B,,A, B,2 CB, | A,2 B,A, G,F,CC, | F,2 z2 A,,B,,C,C,, | %5
 F,,2 F,/=E,/D, A,,B,,C,C,, | F,,2 z F FDGG, | C2 A,2 G,A,G,A, | B,B,A,G, F,G, F,2- | %9
 F,2 z B,/G,/ MG,2 z C/A,/ | MA,2 z D/B,/ MB,G,/E,/ F,F,, | %11
 B,,F,/D,/ PD,B,/F,/ PF,D/B,/ MB,[I:staff -1]F/D/ |[I:staff +1] z E, F,2 G,E, F,2 | %13
 B, z A, z G, z F, z | E,, z z F,/E,/ PE,D,/C,/ PC,B,,- | B,,/D,/PC,/B,,/ F,E, D,2 z2 | z4 B,4 |] %17
[M:4/4] z8 | z8 | z4 MDD^F,G, | A,2 B,C B,>C DE | =B,2 CD E"_as"C D2 | C2 _B,_A, G,2 C2 | %23
 F,2 z2 z4 | z4 MCC=E,F, | G,2 _A,B, !turn!A,>B, C_D | =A,2 B,C _DB, C2 | B,2 _A,=G, F,2 B,2 | %28
 E,2 z2 z4 | z4 MB,B,D,E, | F,2 G,_A, G,>A, B,C | G,2 _A,F, G,A, B,2 | _A,4 G,2 z2 | %33
 z4 F,F,=A,,B,, | C,2 _D,E, D,2 C,2 | F,2 z !arpeggio![D,G,=B,D] [C,G,C]2 z2 |] %36
[K:Eb][M:3/4] F,4 F,2 | =E,4 E,2 | F,2 _D,2 B,,2 | C,4 C,2 | F,4 F,2 | =E,4 E,2 | F,2 _D,2 B,,2 | %43
 C,4 C,2 | F,,4 F,2 | =E,4 E,2 | F,2 _D,2 B,,2 | C,4 C,,2 | F,,4 F,2 | =E,4 _E,2 | =D,4 _D,2 | %51
 B,,2 C,2 C,,2 | F,,2 F,2 G,A, | =E,2 _E,2 F,G, | D,2 _D,2 E,F, | B,,2 C,2 B,,C, | F,,2 z2 F,2 | %57
 G,2 z2 G,,2 | A,,2 z2 _D,2 | C,2 z2 C,,2 | F,, F,A,A,_DF, | _E,G,=B,B,CE, | _D,F,=A,A,B,D, | %63
 C,=E,G,G,B,C, | F,,2 z2 F,2 | =E,2 z2 _E,2 | =D,2 z2 _D,2 | C,2 z2 C,2 | F,,2 z2 z F | %69
 =E_E=D_D C2 | z _DC=B, _B,2 | z C=B,_B,A,G, | F,2 z .F,(F,_E,) | ._D,._D(DC) z .C | %74
 (CB,) z .G,(G,F,) | z A,B,=B,CC, | F,2 F,,2 F,2 | =E,2 =E,,2 E,2 | F,2 _D,2 B,,2 | C,2 C,,2 C,2 | %80
 F,2 A,(=A, B,)(=B, | C)(F, =E,_E, =D,_D,) | .C,(C _D)(=D, _E,)(=E | F)B,, C,2 C,,2 | F,,2 z2 z2 |] %85
[K:Bb][M:4/4] [F,_A,B,]4 z2 [F,A,B,]2 | [G,B,]4 z2 [G,B,]2 | [B,,E,]4 z2 [B,,E,]2 | %88
 [E,_A,]2 z _A, B,A,G,F, | B,2 _A,G, A,2 z F, | F,2 G,=A, G,2 z C | %91
[I:staff -1] DC[I:staff +1]B,A, G,2 z G, | A,G,F,=E, A,2 z F, | F,2 F,2 =E,2 F,2 | %94
 G,2 B,2 CB,A,G, | CB,A,G, A,4 |][M:4/4] z F, B,2- B,A, B,2 | z8 | F,3 F,- F,=E, F,2 | %99
 z2 z [C,F,] F,G, F,2 | [D,F,]2 z2 z2 [D,F,B,]2 :: G,/A,/B,/C/ DE D/E/D/C/ B,>A, | %102
 G,(G/G,/) G,(G/G,/) G,(G/G,/) (G,G) | A,/G,/F,/=E,/ D,G, F,=E, D,(D/D,/) | %104
 D,(D/D,/) D,2 z (D,/D,,/) D,,2 | z (B,/B,,/) B,,2 z (B,/B,,/) B,,(B,/B,,/) | B,,2 z A, B,G, F,2- | %107
 F,2 x2 z F, B,2 :|[M:4/4] z8 | z8 | z8 | z8 | F,2 z F,/F,/ B,B,B,B, | A,F, F,F,/F,/ DDDD | %114
 G,=E,E,C F,D,D,=B, | CD/_E/ A,_B,/C/ B,C/D/ A,B,/C/ | z8 | z4 B,,2 z B,,/B,,/ | %118
 F,F,F,F, D,B,, B,,B,,/B,,/ | G,G,G,G, C,A,,A,,F, | B,,G,,G,,=E, F,G,/A,/ E,F,/G,/ | %121
 F,G,/A,/ =E,F,/G,/ F,A,/A,,/ A,,2 | z B,/B,,/ B,,2 z/ C,/D,/_E,/ F,/G,/F,/E,/ | %123
 D,B,/B,,/ B,,2 z A,/A,,/ A,,2 | z D,/C,/ D,/E,/D,/C,/ B,,2 z2 | z C/C,/ C,2 z B,/B,,/ B,,2 | %126
 C2 B,2 C2 B,2 | A,2 z2 A,2 z2 | B,2 z2 D2 z2 | C z z2 z4 | z A,,/G,,/ A,,/B,,/A,,/G,,/ F,,2 z F, | %131
 G,8 | z C,CF, DF,CF, | D/E/D/C/ B,2 C/D/C/B,/ A,2 | B,2 z B,/B,/ FFFF | DB, B,B,/B,/ GGGG | %136
 CA,A,F B,G,G,=E |[K:treble] FG/A/ =EF/G/ FG/A/ EF/G/ | FG/A/ DE/F/ EF/G/[K:bass] CD/E/ | %139
 DE/F/ B,C/D/ CD ED/C/ | D2 x6 | DDDD G,E,E,C | F,D,D,=B, CD/E/ A,_B,/C/ | %143
 B,C/D/ A,B,/C/ B,C/D/ A,B,/C/ | B,DEC z F/F,/ F,2 | z D/D,/ D,2 z A,/G,/ A,/B,/A,/G,/ | %146
 F,2 z2 z G/G,/ G,2 | z F/F,/ F,2 z E/E,/ E,2 | z C/x/ CF, B,F,CF, | F,2 z E, F,E,F,G, | %150
 C B,2 A,- A, G,2 F,- | F,2 z2 F/F,/F,/F/ E/E,/E,/E/ | D/D,/D,/D/ C/C,/C,/C/ B,2 A,2 | %153
 D E2 D- D=E D2 | C2 B,2 A,B,=B,A, | F,=G,/A,/ B,2 z2 z A,/A,/ | DDDD ^CA, A,A,/A,/ | %157
 FFFF B,G,G,=E | A,F,F,D | G,=E,E,^C | D[I:staff -1]=E/F/ ^CD/E/ D_E/F/ =B,=C/D/ |[I:staff +1] z8 | %162
 z8 | F,2 z F,/F,/ B,B,B,B, | C2 z F/D/ B,2 z E/C/ | A,2 B,2 C2 B,C | B,2 z F/F,/ F, x [D,F,B,]2 |] %167
V:4
 x8 | x8 | x8 | x8 | x8 | x8 | x8 | x8 | B,G,F,E, D,E,F,F,, | B,,2 x6 | x8 | x8 | x8 | x8 | %14
 x2 F,,2- F,,4- | F,,4 B,,2 z2 | z4 !fermata!B,,4 |][M:4/4] z8 | z8 | z8 | z4 MG,G,=B,,C, | %21
 D,2 E,F, E,F,D,G, | C,2 z2 z4 | z8 | z8 | z4 MF,F,=A,,B,, | C,2 _D,E, D,_G,C,F, | B,,2 z2 z4 | %28
 z8 | z8 | z4 ME,E,G,,_A,, | B,,2 C,_D, C,F,B,,E, | _A,,3 =B,, C,2 z2 | z8 | z4 B,,B,,=E,,F,, | %35
 =D,,2 z G,, C,,2 z2 |][K:Eb][M:3/4] x6 | x6 | x6 | x6 | x6 | x6 | x6 | x6 | x6 | x6 | x6 | x6 | %48
 x6 | x6 | x6 | x6 | x6 | x6 | x6 | x6 | x6 | x6 | x6 | x6 | x6 | x6 | x6 | x6 | x6 | x6 | x6 | %67
 x6 | x6 | x6 | x6 | x6 | x6 | x6 | x6 | x6 | x6 | x6 | x6 | x6 | x6 | x6 | x6 | x6 | x6 |] %85
[K:Bb][M:4/4] D,4 z2 D,2 | E,4 z2 E,2 | G,,4 z2 G,,2 | _A,,2 x6 | E,2 z E, _A,,2 z =A,, | %90
 B,,2 z ^F,, G,,A,,B,,C, | D,2 z D, G,,2 z =E, | A,,2 z2 D,=C,_B,,A,, | B,,2 A,,2 G,,2 F,,2 | %94
 B,,2 C,2 F,2 z C, | F,2 z C, !fermata!F,,4 |][M:4/4] B,,3 E, F,2 B,,2 | x8 | A,,C,D,B,, C,2 F,,2 | %99
 z2 z A,, B,,_E, F,2 | B,,2 z2 z2 B,,2 :: x8 | x8 | x8 | x8 | x8 | x3 C, D,E,F,F,, | %107
 B,,2 z (B,/B,,/) B,,4 :|[M:4/4] z8 | z8 | z8 | z8 | z8 | z8 | z8 | z8 | x8 | x8 | x8 | x8 | x8 | %121
 x8 | x8 | x8 | x8 | x8 | A,G,/F,/ G,C, A,C,G,C, | F,2 z/ G,/F,/=E,/ D,2 z/ D,/=E,/F,/ | %128
 G,2 z/ G,/F,/_E,/ D,2 z/ C,/D,/E,/ | F,>F,, F,,2 z D,/D,,/ D,,2 | x8 | x8 | x8 | x8 | B,2 z2 z4 | %135
 z8 | z8 |[K:treble] z8 | z8[K:bass] | z4 F,2 z F,/F,/ | B,B,B,B, A,F, F,F,/F,/ | x8 | x8 | x8 | %144
 z4 F,,2 z F,,/F,,/ | B,,B,,B,,B,, A,,F,, F,,F,,/F,,/ | D,D,D,D, G,,E,,E,,C, | %147
 F,,D,,D,,B,, E,,C,,C,,A,, | B,,C,/D,/ A,,B,,/C,/ B,,C,/D,/ A,,B,,/C,/ | B,,2 z C, D,C,D,=E, | %150
 F,D,_E,C, D,B,,C,A,, | B,,C,D,B,, F,,/ x7/2 | x4 D2 C2 | G,2 =F,2 B,A,D,G, | C,F,B,,G, F,G,^G,A, | %155
 D,2 z/ F,/=E,/D,/ ^C,/D,/C,/=B,,/ A,,C, | D,=E,F,G, A,2 ^C2 | D2 z2 z4 | z4 | x4 | z8 | x8 | x8 | %163
 x8 | A,F,F,F, G,G,G,E, | F,2 z2 F,2 z F, | x3 F,, B,,B,/B,,/ !fermata!B,,2 |] %167
V:5
 x8 | x8 | x8 | x8 | x8 | x8 | x8 | x8 | x8 | D,2 x6 | x8 | x8 | x8 | x8 | x8 | x8 | x4 F,4 |] %17
[M:4/4] x8 | x8 | x8 | x8 | x8 | x8 | x8 | x8 | x8 | x8 | x8 | x8 | x8 | x8 | x8 | x8 | x8 | x8 | %35
 D,2 x6 |][K:Eb][M:3/4] x6 | x6 | x6 | x6 | x6 | x6 | x6 | x6 | x6 | x6 | x6 | x6 | x6 | x6 | x6 | %51
 x6 | x6 | x6 | x6 | x6 | x6 | x6 | x6 | x6 | x6 | x6 | x6 | x6 | x6 | x6 | x6 | x6 | x6 | x6 | %70
 x6 | x6 | x6 | x6 | x6 | x6 | x6 | x6 | x6 | x6 | x6 | x6 | x6 | x6 | x6 |][K:Bb][M:4/4] x8 | x8 | %87
 x8 | x8 | G,2 x6 | x2 z D, D,2 x2 | A,2 x6 | x8 | D,2 C,2 x2 C,2 | D,2 [=E,G,]2 x4 | F,2 x2 F,4 |] %96
[M:4/4] x8 | x8 | x8 | x8 | x8 :: x8 | x8 | x8 | x8 | x8 | x8 | D,2 x6 :|[M:4/4] x8 | x8 | x8 | %111
 x8 | x8 | x8 | x8 | x8 | x8 | x8 | x8 | x8 | x8 | x8 | x8 | x8 | x8 | x8 | x8 | x8 | x8 | x8 | %130
 x8 | x8 | x8 | x8 | x8 | x8 | x8 |[K:treble] x8 | x6[K:bass] x2 | x8 | x8 | x8 | x8 | x8 | x8 | %145
 x8 | x8 | x8 | x8 | x8 | x8 | x8 | x8 | x8 | x8 | x8 | x8 | x8 | x4 | x4 | x8 | x8 | x8 | x8 | %164
 x8 | x8 | x8 |] %167
V:6
 x8 | x8 | x8 | x8 | x8 | x8 | x8 | x8 | x8 | x8 | x8 | x8 | x8 | x8 | x8 | x8 | x4 F4 |] %17
[M:4/4] x8 | x8 | x8 | x8 | x8 | x8 | x8 | x8 | x8 | x8 | x8 | x8 | x8 | x8 | x8 | x8 | x8 | x8 | %35
 =D2 x6 |][K:Eb][M:3/4] x6 | x6 | x6 | x6 | x6 | x6 | x6 | x6 | x6 | x6 | x6 | x6 | x6 | x6 | x6 | %51
 x6 | x6 | x6 | x6 | x6 | x6 | x6 | x6 | x6 | x6 | x6 | x6 | x6 | x6 | x6 | x6 | x6 | x6 | x6 | %70
 x6 | x6 | x6 | x6 | x6 | x6 | x6 | x6 | x6 | x6 | x6 | x6 | x6 | x6 | x6 |][K:Bb][M:4/4] x8 | x8 | %87
 x8 | x8 | x4 _AGFE | x8 | x8 | x4 d2 x2 | x8 | x8 | x8 |][M:4/4] x8 | x8 | x8 | x8 | x8 :: x8 | %102
 x8 | x8 | x8 | x8 | x8 | x8 :|[M:4/4] x8 | x8 | x8 | x8 | x8 | x8 | x8 | x8 | x8 | x8 | x8 | x8 | %120
 x8 | x8 | x8 | d2 x6 | x8 | x8 | x8 | x8 | x8 | x8 | x8 | x8 | x8 | x8 | x8 | x8 | x8 | x8 | x8 | %139
 x8 | x8 | x8 | x8 | x8 | x8 | x8 | x8 | x8 | x8 | x8 | x8 | x8 | x8 | x8 | x8 | x8 | x8 | x8 | %158
 x4 | x4 | x8 | x8 | x8 | x8 | x8 | x8 | x8 |] %167
V:7
 x8 | x8 | x8 | x8 | x8 | x8 | x8 | x8 | x8 | x8 | x8 | x8 | x8 | x8 | x8 | x8 | x8 |][M:4/4] x8 | %18
 x8 | x8 | x8 | x8 | x8 | x8 | x8 | x8 | x8 | x8 | x8 | x8 | x8 | x8 | x8 | x8 | x8 | x8 |] %36
[K:Eb][M:3/4] x6 | x6 | x6 | x6 | x6 | x6 | x6 | x6 | x6 | x6 | x6 | x6 | x6 | x6 | x6 | x6 | x6 | %53
 x6 | x6 | x6 | x6 | x6 | x6 | x6 | x6 | x6 | x6 | x6 | x6 | x6 | x6 | x6 | x6 | x6 | x6 | x6 | %72
 x6 | x6 | x6 | x6 | x6 | x6 | x6 | x6 | x6 | x6 | x6 | x6 | x6 |][K:Bb][M:4/4] x8 | x8 | x8 | x8 | %89
 x8 | x8 | x8 | x8 | x8 | x8 | x4 C,4 |][M:4/4] x8 | x8 | x8 | x8 | x8 :: x8 | x8 | x8 | x8 | x8 | %106
 x8 | x8 :|[M:4/4] x8 | x8 | x8 | x8 | x8 | x8 | x8 | x8 | x8 | x8 | x8 | x8 | x8 | x8 | x8 | x8 | %124
 x8 | x8 | x8 | x8 | x8 | x8 | x8 | x8 | x8 | x8 | x8 | x8 | x8 |[K:treble] x8 | x6[K:bass] x2 | %139
 x8 | x8 | x8 | x8 | x8 | x8 | x8 | x8 | x8 | x8 | x8 | x8 | x8 | x8 | x8 | x8 | x8 | x8 | x8 | %158
 x4 | x4 | x8 | x8 | x8 | x8 | x8 | x8 | x8 |] %167

